X:1
T:Title
%%score { ( 1 4 ) | ( 2 3 ) }
L:1/8
M:4/4
K:Bb
V:1 treble nm="Grand Piano"
V:4 treble 
V:2 bass 
V:3 bass 
V:1
 z4 z2[Q:1/4=106] [DF]2 | [Fd]2 [Fd]2 [Fd]2 [Ge]d | c2 c2 c2 dc | B2 B2 B2 c2 |[M:3/4] [Fd]6 | %5
[M:1/4] [DF]2 |[M:4/4] [Fd]2 [Fd]2 [Fd]2 [Ge]d | c2 c2 c2 dc | [B,GB]2 [DGB]2 [CFA]2 [B,=EG]2 | %9
[M:3/4] [A,F]6 |[M:1/4] F2 |[M:4/4] B6[K:bass][K:treble] z2 | [B,FA]3 [B,EG] [B,EG]2 G2 | e6 .d2 | %14
[M:3/4] B3 A A2 |[M:1/4] F2 |[M:4/4] [Ff]3 [Fe] [Fd]2 [DG=B]2 | %17
[M:9/8] [CGc]2 [Gd]- [Gd] [Ge]2- [Ge]dc |[M:4/4] B2 B2 A2 F2 |[M:3/4] [DB]6 |] %20
V:2
 z4 z2 [B,,B,]2 | [B,,B,]2 [B,,B,]2 [B,,B,]2 z[K:treble] F | %2
 [F,A,F]2[K:bass] [F,A,F]2 [F,A,F]2 [D,A,]2 | [G,B,G]2 [G,B,D]2[K:bass] [G,B,D]2 [F,A,F]2 | %4
[M:3/4] [B,,B,]6 |[M:1/4] [B,,B,]2 |[M:4/4] [B,,B,]2 [B,,B,]2 [B,,B,]2 z[K:treble] F | %7
 [F,A,F]2 [F,A,F]2 [F,A,F]2 [F,A,^F]2 | G,2 B,,2 C,2 C,2 |[M:3/4] F,6 |[M:1/4] E2 |[M:4/4] D6 z2 | %12
 E,3 E, E,2[K:treble] E2 | G6[K:bass] z2 |[M:3/4] [F,DF]3 [F,CF] [F,CF]2 |[M:1/4] A,2 | %16
[M:4/4] [D,B,]3 [C,A,] [B,,B,]2 G,F, |[M:9/8] E,2 [D,=B,]- [D,B,] [C,C]2- [C,C][D,B,][E,C] | %18
[M:4/4] [F,DF]2 [F,DF]2 [F,CE]2 [F,A,E]2 |[M:3/4] [B,,F,B,]6 |] %20
V:3
 x8 | z4 z2 [B,,B,]2[K:treble] | x2[K:bass] x6 | x4[K:bass] x4 |[M:3/4] x6 |[M:1/4] x2 | %6
[M:4/4] z4 z2 [B,,B,]2[K:treble] | x8 | x8 |[M:3/4] x6 |[M:1/4] x2 |[M:4/4] z2 B,,2 B,,2 D,2 | %12
 x6[K:treble] x2 | z2[K:bass] C,2 C,2 [D,=B,][E,C] |[M:3/4] x6 |[M:1/4] F, z |[M:4/4] x8 | %17
[M:9/8] x9 |[M:4/4] x8 |[M:3/4] x6 |] %20
V:4
 x8 | x8 | z4 z2 ^F2 | x8 |[M:3/4] x6 |[M:1/4] x2 |[M:4/4] x8 | x8 | x8 |[M:3/4] x6 |[M:1/4] x2 | %11
[M:4/4] z2[K:bass] F,2 F,2[K:treble] [B,FA]2 | x8 | z2 C2 C2 G-[Gc] |[M:3/4] x6 |[M:1/4] z E, | %16
[M:4/4] x8 |[M:9/8] z3 z3 z G2 |[M:4/4] x8 |[M:3/4] x6 |] %20

